icons/1_Primary/Nimbus Note.svg

<svg width="1024" height="1024" viewBox="0 0 1024 1024" fill="none" xmlns="http://www.w3.org/2000/svg">
<g clip-path="url(#clip0_2_2943)">
<path d="M512 1024C794.77 1024 1024 794.77 1024 512C1024 229.23 794.77 0 512 0C229.23 0 0 229.23 0 512C0 794.77 229.23 1024 512 1024Z" fill="#9ABEFF"/>
<path d="M512 256C370.62 256 256 370.6 256 512C256 653.4 370.62 768 512 768C653.38 768 768 653.4 768 512C768 370.6 653.39 256 512 256ZM632.88 595.56C629.88 614.35 624.37 629.84 615.4 641.84C604.01 657.07 587.6 665.58 568.11 665.58C553.46 665.58 541.61 658.01 531.64 645.77C524.88 637.46 518.69 626.61 512.46 612.83C503.38 592.78 496.59 573.47 481.46 527.26L481.34 526.88C466.4 481.12 459.6 461.88 451.34 444.21C449.329 439.842 447.096 435.58 444.65 431.44C442.2 439.38 440.49 450.94 439.81 465.83C438.05 503.93 443.02 560.83 454.81 636C455.822 642.684 454.149 649.497 450.157 654.952C446.164 660.407 440.176 664.062 433.499 665.118C426.821 666.174 419.998 664.547 414.516 660.59C409.035 656.634 405.341 650.67 404.24 644C391.95 565.73 386.72 505.75 388.67 463.53C389.67 440.82 392.84 422.66 398.48 408.62C405.74 390.57 417.83 378.02 434.93 374.1C451.08 370.4 465.4 376.85 476.88 389.24C484.38 397.34 491.04 408.31 497.71 422.54C507.26 442.91 514.39 463.04 530.06 511.05L530.18 511.43C544.61 555.65 551.11 574.11 559.11 591.77C563.69 601.88 567.87 609.22 571.36 613.51L571.62 613.83C572.747 613.207 573.705 612.318 574.41 611.24C577.67 606.87 580.53 598.83 582.34 587.52C585.99 564.7 584.97 532.52 580.11 492.65C574.59 447.43 565.84 411.85 554.16 386.12C551.485 379.958 551.338 372.992 553.753 366.723C556.167 360.455 560.948 355.386 567.066 352.611C573.183 349.836 580.146 349.576 586.453 351.888C592.76 354.2 597.906 358.899 600.78 364.97C614.88 396.04 624.78 436.47 630.92 486.45C636.31 530.6 637.47 566.93 632.88 595.56Z" fill="white"/>
</g>
<defs>
<clipPath id="clip0_2_2943">
<rect width="1024" height="1024" fill="white"/>
</clipPath>
</defs>
</svg>

<svg width="1024" height="1024" fill="none" xmlns="http://www.w3.org/2000/svg"><g clip-path="url(#a)"><path d="M512 1024c282.77 0 512-229.23 512-512S794.77 0 512 0 0 229.23 0 512s229.23 512 512 512Z" fill="#9ABEFF"/><path d="M512 256c-141.38 0-256 114.6-256 256s114.62 256 256 256 256-114.6 256-256-114.61-256-256-256Zm120.88 339.56c-3 18.79-8.51 34.28-17.48 46.28-11.39 15.23-27.8 23.74-47.29 23.74-14.65 0-26.5-7.57-36.47-19.81-6.76-8.31-12.95-19.16-19.18-32.94-9.08-20.05-15.87-39.36-31-85.57l-.12-.38c-14.94-45.76-21.74-65-30-82.67a141.147 141.147 0 0 0-6.69-12.77c-2.45 7.94-4.16 19.5-4.84 34.39-1.76 38.1 3.21 95 15 170.17a25.602 25.602 0 0 1-21.311 29.118A25.6 25.6 0 0 1 404.24 644c-12.29-78.27-17.52-138.25-15.57-180.47 1-22.71 4.17-40.87 9.81-54.91 7.26-18.05 19.35-30.6 36.45-34.52 16.15-3.7 30.47 2.75 41.95 15.14 7.5 8.1 14.16 19.07 20.83 33.3 9.55 20.37 16.68 40.5 32.35 88.51l.12.38c14.43 44.22 20.93 62.68 28.93 80.34 4.58 10.11 8.76 17.45 12.25 21.74l.26.32a7.9 7.9 0 0 0 2.79-2.59c3.26-4.37 6.12-12.41 7.93-23.72 3.65-22.82 2.63-55-2.23-94.87-5.52-45.22-14.27-80.8-25.95-106.53a25.6 25.6 0 0 1 46.62-21.15c14.1 31.07 24 71.5 30.14 121.48 5.39 44.15 6.55 80.48 1.96 109.11Z" fill="#fff"/></g><defs><clipPath id="a"><path fill="#fff" d="M0 0h1024v1024H0z"/></clipPath></defs></svg>
